src/img/icons/arrow-up.svg

<svg width="32" height="32" viewBox="0 0 32 32" fill="none" xmlns="http://www.w3.org/2000/svg">
<path d="M15.0518 8.1205L6.63557 16.4361C6.44609 16.6153 6.22435 16.7076 5.97036 16.7128C5.71637 16.7183 5.49185 16.6234 5.2968 16.4282C5.1015 16.233 5.00259 16.0122 5.00006 15.7658C4.99728 15.5194 5.0948 15.2985 5.29263 15.1033L15.1755 5.35051C15.2995 5.22843 15.4286 5.13943 15.563 5.08351C15.6976 5.02784 15.8454 5 16.0066 5C16.168 5 16.3155 5.02784 16.449 5.08351C16.5826 5.13943 16.7114 5.22843 16.8353 5.35051L26.7183 15.1033C26.9012 15.2838 26.995 15.5003 26.9998 15.7527C27.0046 16.0053 26.9108 16.2305 26.7183 16.4282C26.5176 16.6234 26.2919 16.7211 26.0409 16.7211C25.7899 16.7211 25.5687 16.6234 25.3772 16.4282L16.9591 8.1205V26.0589C16.9591 26.3303 16.8687 26.555 16.6881 26.733C16.5077 26.911 16.2802 27 16.0054 27C15.7305 27 15.5028 26.911 15.3224 26.733C15.142 26.555 15.0518 26.3303 15.0518 26.0589V8.1205Z" fill="#131212"/>
</svg>

<svg xmlns="http://www.w3.org/2000/svg" viewBox="0 0 32 32">
  <path fill="currentColor" d="m15.052 8.12-8.416 8.316a.968.968 0 0 1-.666.277.896.896 0 0 1-.673-.285.928.928 0 0 1-.297-.662c-.003-.247.095-.467.293-.663l9.883-9.752c.123-.123.253-.212.387-.267A1.15 1.15 0 0 1 16.007 5c.161 0 .308.028.442.084a1.2 1.2 0 0 1 .386.267l9.883 9.752c.183.18.277.397.282.65a.916.916 0 0 1-.282.675.948.948 0 0 1-.677.293.903.903 0 0 1-.664-.293L16.96 8.12v17.94c0 .271-.09.496-.27.674a.932.932 0 0 1-.684.267.933.933 0 0 1-.683-.267.907.907 0 0 1-.27-.674V8.12Z"/>
</svg>
